covers/svg/cover-phoenix.svg

<svg xmlns="http://www.w3.org/2000/svg" width="1280" height="640" fill="none"><path fill="#EDEFF3" d="M0 0h1280v640H0z"/><path fill="#1A1A1A" d="M1139.65 596h-9.85v-1.699l6.55-9.153h-6.15v-2.121h9.26v1.875l-6.42 8.977h6.61zm7.97-13.219c1.16 0 2.15.239 2.98.715.83.477 1.46 1.152 1.91 2.027.44.875.67 1.922.67 3.141v1.477h-8.66c.03 1.257.36 2.226 1 2.906.65.68 1.56 1.019 2.72 1.019.83 0 1.57-.078 2.23-.234.66-.164 1.35-.402 2.05-.715v2.238q-.975.458-1.98.668c-.67.141-1.48.211-2.42.211q-1.905 0-3.36-.738c-.96-.5-1.71-1.242-2.26-2.226q-.81-1.478-.81-3.668c0-1.454.25-2.688.74-3.704q.735-1.523 2.07-2.32t3.12-.797m0 2.074c-.87 0-1.57.282-2.11.844-.53.563-.84 1.387-.94 2.473h5.91q-.015-.973-.33-1.723c-.2-.5-.51-.89-.94-1.172q-.615-.422-1.59-.422m15.24-2.074c.21 0 .45.012.71.035s.48.055.67.094l-.26 2.578a3.4 3.4 0 0 0-.61-.105 6 6 0 0 0-.63-.035q-.735 0-1.41.246c-.44.156-.84.398-1.18.726-.35.321-.61.723-.81 1.207s-.29 1.047-.29 1.688V596h-2.77v-12.973h2.16l.37 2.285h.13q.39-.69.96-1.265c.39-.383.82-.688 1.31-.914a3.8 3.8 0 0 1 1.65-.352m15.26 6.703q0 1.618-.42 2.871-.42 1.254-1.23 2.122a5.4 5.4 0 0 1-1.94 1.312c-.76.297-1.62.445-2.57.445-.89 0-1.71-.148-2.45-.445a5.5 5.5 0 0 1-1.93-1.312q-.81-.868-1.26-2.122c-.29-.835-.44-1.793-.44-2.871 0-1.429.24-2.64.74-3.632q.75-1.5 2.13-2.286c.92-.523 2.02-.785 3.29-.785 1.2 0 2.25.262 3.17.785.91.524 1.63 1.286 2.14 2.286.52 1 .77 2.21.77 3.632m-9.41 0c0 .946.12 1.754.34 2.426q.36 1.008 1.08 1.547c.49.352 1.11.527 1.88.527.76 0 1.39-.175 1.87-.527.49-.359.84-.875 1.07-1.547s.34-1.48.34-2.426c0-.945-.11-1.746-.34-2.402-.23-.664-.58-1.168-1.07-1.512-.48-.351-1.11-.527-1.88-.527-1.14 0-1.98.383-2.5 1.148-.52.766-.79 1.864-.79 3.293m19.24-6.703c1.53 0 2.77.563 3.7 1.688.94 1.125 1.4 2.797 1.4 5.015 0 1.469-.21 2.707-.65 3.715-.43 1-1.04 1.758-1.82 2.274q-1.155.76-2.7.761c-.66 0-1.23-.086-1.72-.257a4.4 4.4 0 0 1-1.24-.668 5 5 0 0 1-.87-.914h-.16c.04.312.07.66.11 1.043.04.374.05.718.05 1.031v5.285h-2.76v-18.727h2.25l.39 1.793h.12c.25-.367.54-.707.88-1.019.36-.313.78-.559 1.27-.739.5-.187 1.08-.281 1.75-.281m-.74 2.25q-1.14 0-1.83.457c-.45.297-.79.746-1 1.348q-.3.902-.33 2.262v.386q0 1.442.3 2.45.3.995.99 1.523c.47.344 1.11.516 1.9.516.67 0 1.23-.184 1.67-.551q.66-.551.99-1.57t.33-2.403q0-2.097-.75-3.258c-.49-.773-1.25-1.16-2.27-1.16m17.75 7.266c0 .851-.21 1.57-.62 2.156s-1.02 1.031-1.82 1.336c-.79.297-1.75.445-2.9.445-.91 0-1.69-.066-2.35-.199a8 8 0 0 1-1.84-.586v-2.379c.62.289 1.31.539 2.08.75q1.155.317 2.19.317c.91 0 1.56-.141 1.96-.422.39-.289.59-.672.59-1.149q0-.421-.24-.75c-.16-.226-.46-.457-.89-.691-.43-.242-1.07-.531-1.9-.867-.82-.328-1.51-.656-2.08-.985-.56-.328-.98-.722-1.27-1.183-.29-.469-.44-1.067-.44-1.793 0-1.149.46-2.02 1.36-2.613.92-.602 2.12-.903 3.62-.903q1.2 0 2.25.246c.72.157 1.41.387 2.09.692l-.87 2.074q-.87-.387-1.77-.633a6.3 6.3 0 0 0-1.79-.258c-.71 0-1.25.11-1.63.328-.37.219-.55.532-.55.938q0 .457.27.773.27.317.93.633c.44.211 1.06.473 1.85.785.77.297 1.44.61 2 .938.57.32 1.01.715 1.31 1.183.31.469.46 1.075.46 1.817m2.58 2.25c0-.641.16-1.09.49-1.348.34-.265.74-.398 1.22-.398s.88.133 1.22.398q.51.387.51 1.348 0 .938-.51 1.359c-.34.274-.74.41-1.22.41s-.88-.136-1.22-.41c-.33-.281-.49-.734-.49-1.359m9.74-11.52V596h-2.76v-12.973zm-1.36-4.968c.42 0 .78.113 1.09.339s.47.618.47 1.172c0 .547-.16.938-.47 1.172-.31.227-.67.34-1.09.34-.44 0-.81-.113-1.12-.34-.29-.234-.44-.625-.44-1.172 0-.554.15-.945.44-1.172.31-.226.68-.339 1.12-.339m16.79 11.425q0 1.618-.42 2.871-.42 1.254-1.23 2.122a5.4 5.4 0 0 1-1.95 1.312c-.75.297-1.61.445-2.56.445-.89 0-1.71-.148-2.45-.445a5.7 5.7 0 0 1-1.94-1.312c-.54-.579-.95-1.286-1.25-2.122q-.45-1.253-.45-2.871c0-1.429.25-2.64.74-3.632.5-1 1.21-1.762 2.14-2.286.92-.523 2.02-.785 3.29-.785 1.19 0 2.25.262 3.16.785.92.524 1.63 1.286 2.15 2.286.51 1 .77 2.21.77 3.632m-9.41 0c0 .946.11 1.754.34 2.426.24.672.59 1.188 1.08 1.547.48.352 1.11.527 1.87.527.77 0 1.39-.175 1.88-.527.48-.359.84-.875 1.07-1.547.22-.672.34-1.48.34-2.426 0-.945-.12-1.746-.34-2.402-.23-.664-.59-1.168-1.07-1.512-.49-.351-1.11-.527-1.89-.527q-1.71 0-2.49 1.148c-.53.766-.79 1.864-.79 3.293"/><path fill="#323232" d="m337.596 179.457-96.358 36.828A22.43 22.43 0 0 0 227 237.194v92.714l44.283-25.449v-52.131l74.217-28.475V178c-2.701.006-5.379.5-7.904 1.457M272.068 387.085l73.432-42.322v-51.121l-113.455 65.415a10.21 10.21 0 0 0-5.045 8.745v34.249a22.4 22.4 0 0 0 3.952 12.522 22.4 22.4 0 0 0 10.286 8.162l96.358 36.828a22.4 22.4 0 0 0 7.904 1.458v-45.853z"/><path fill="#1A1A1A" d="M459.291 279.066a9.36 9.36 0 0 0 4.708-8.24v-33.632a22.427 22.427 0 0 0-14.238-20.909l-96.414-36.828A22.4 22.4 0 0 0 345.5 178v45.853l72.871 28.027-72.871 41.985v51.122zM353.347 459.563l96.414-36.828a22.42 22.42 0 0 0 14.238-20.684v-93.667l-44.283 25.561v52.859L345.5 415.168v45.853a22.4 22.4 0 0 0 7.847-1.458"/><path fill="#939393" d="m670 295.553-6.043-6.043L640 313.467l-23.957-23.957-6.043 6.043 23.957 23.957L610 343.467l6.043 6.043L640 325.553l23.957 23.957 6.043-6.043-23.957-23.957z"/><path fill="#DC5F36" d="M865.558 245.448c-14.14.102-30.174 4.181-41.385 12.353a27 27 0 0 0-.767.622c.037.067.043.107.073.174.281 0 .543-.043.824-.073 2.185-.348 4.347-.276 6.495.102 8.265 1.496 16.554 8.02 19.398 26.558 1.837 11.909-.244 17.642 2.777 29.9 6.599 26.766 31.605 37.359 44.351 36.944 1.318-.037 7.912-.492 8.882-.766-.837-.904-15.135-.343-23.608-17.214-1.496-2.985-2.612-6.117-2.227-9.591 1.007-8.85 11.424-10.414 18.052-6.422 12.502 7.495 21.975 31.701 39.476 33.849 12.843 1.562 29.376-5.91 37.567-15.768-.208-.037-.281-.058-.347-.029-.141.037-.287.065-.391.102-11.561 4.199-32.739 3.374-46.766-5.136-13.058-7.917-18.433-20.389-17.981-25.907.622-7.391 7.952-8.043 12.469-6.799 5 1.356 8.468 6.105 13.497 9.504 5.414 3.607 11.429 4.751 17.821 3.573 5.169-.941 11.938-4.271 12.671-5.034-.385-.037-.623-.028-.867-.058-2.156-.207-4.305-.274-6.423-.593-38.601-5.725-44.748-56.808-87.66-60.103a71 71 0 0 0-5.931-.188m-3.746 7.218c-.385 5.103-7.719 7.394-12.267 2.358-.318-.348-.315-.413-.448-.695 4.199-.903 8.404-1.419 12.715-1.663m54.115 12.802c.34.385.53.602.737.81 5.207 5.451 11.133 9.958 17.836 13.395 8.021 4.066 16.43 6.255 25.488 5.352 3.088-.282 6.067-1.081 8.882-2.474.207-.104.414-.279.622-.419q-.31-.157-.521-.102c-1.496.178-2.945.453-4.441.594-4.51.414-8.777-.274-12.628-2.807-6.251-4.132-10.595-8.65-17.431-11.427-8.228-3.333-15.908-2.922-18.544-2.922m12.946 17.025c-.385.504.218.767.463 1.071 16.146 19.323 43.978 22.299 61.405 16.071 13.089-4.651 21.749 2.655 23.479 10.024.03.134.09.301.16.434a.43.43 0 0 1 .21-.043c0-3.015-.56-6.458-1.77-9.605-2.06-5.318-5.55-9.41-11.14-11.587-8.75-3.385-17.394-.641-23.09 1.099-8.783 2.711-17.154 3.787-27.73 1.751-7.643-1.444-14.651-4.293-20.931-8.781-.319-.237-1.019-.5-1.056-.434m62.808 32.894c-2.191-.091-4.521.034-7.015.391-10.51 1.526-16.51 6.281-24.027 10.762-6.436 3.785-10.298 3.344-18.689 2.025 0 .067-.044.093-.044.16.134.066.229.15.333.217 7.08 3.606 13.145 3.954 22.277 2.777 10.309-1.355 15.155-5.04 20.888-8.477 6.91-4.133 13.347-2.914 23.086-1.389.03-.066.04-.15.07-.216-4.95-3.75-10.304-5.975-16.879-6.25m13.989 11.038c-10.932.813-17.473 7.417-23.377 13.554-2.592 2.703-5.15 5.423-7.883 7.955-5.192 4.859-9.315 5.239-10.285 5.758v.144c2.148.141 9.24-.179 15.536-1.461 24.159-4.969 24.649-22.296 35.859-22.363 2.6 0 5.11.202 7.54 1.143.06.037.14 0 .32 0-.11-.141-.15-.237-.25-.304-2.36-1.563-4.51-3.79-12.5-4.412-1.75-.139-3.4-.131-4.96-.014m16.91 9.489c-4.23-.391-8.27.788-12.12 3.182-.11.074-.21.218-.42.492 2.49.178 6.29.285 9.76 2.922 4.2 3.199 6.69 7.006 10.97 8.361 6.94 2.192 13.61-.763 14.82-1.837-.06-.141-.1-.167-.14-.145-.73-.207-4.27-.038-8.01-3.645-3.89-3.711-6.22-6.945-10.56-8.404a18.7 18.7 0 0 0-4.3-.926m-154.592 13.221-.144.13c.629 1.074 4.902 6.174 6.509 7.855 11.028 11.635 28.247 20.999 43.223 20.599 10.916-.304 18.486-2.75 27.122-2.069 8.332.6 12.379 2.621 14.06 3.125.037-.067.108-.107.145-.174-.696-.978-2.693-2.928-3.53-3.602-11.968-9.465-24.853-4.358-34.022-8.52-4.059-1.844-4.23-4.298-2.445-5.772 1.363-1.177 1.917-1.373 8.39-2.647-.74-1.14-7.14-4.087-15.087-.969-8.221 3.214-16.581 3.447-25.054 1.099-10.184-2.814-16.856-7.677-19.167-9.055m71.604 30.001c-.096 0-.206.064-.376.13 2.333.623 9.063 1.738 16.432 10.314 4.363 5.073 9.567 7.221 15.825 7.71.037-.178.249-.279-.491-.694-1.696-.97-3.092-2.181-4.181-3.848-2.229-3.436-5.506-10.045-14.06-12.267-4.325-1.11-8.72-1.308-13.149-1.345"/></svg>

<svg width="1280" height="640" viewBox="0 0 1280 640" fill="none" xmlns="http://www.w3.org/2000/svg">
<rect width="1280" height="640" fill="#EDEFF3"/>
<path d="M1139.65 596H1129.8V594.301L1136.35 585.148H1130.2V583.027H1139.46V584.902L1133.04 593.879H1139.65V596ZM1147.62 582.781C1148.78 582.781 1149.77 583.02 1150.6 583.496C1151.43 583.973 1152.06 584.648 1152.51 585.523C1152.95 586.398 1153.18 587.445 1153.18 588.664V590.141H1144.52C1144.55 591.398 1144.88 592.367 1145.52 593.047C1146.17 593.727 1147.08 594.066 1148.24 594.066C1149.07 594.066 1149.81 593.988 1150.47 593.832C1151.13 593.668 1151.82 593.43 1152.52 593.117V595.355C1151.87 595.66 1151.21 595.883 1150.54 596.023C1149.87 596.164 1149.06 596.234 1148.12 596.234C1146.85 596.234 1145.73 595.988 1144.76 595.496C1143.8 594.996 1143.05 594.254 1142.5 593.27C1141.96 592.285 1141.69 591.062 1141.69 589.602C1141.69 588.148 1141.94 586.914 1142.43 585.898C1142.92 584.883 1143.61 584.109 1144.5 583.578C1145.39 583.047 1146.43 582.781 1147.62 582.781ZM1147.62 584.855C1146.75 584.855 1146.05 585.137 1145.51 585.699C1144.98 586.262 1144.67 587.086 1144.57 588.172H1150.48C1150.47 587.523 1150.36 586.949 1150.15 586.449C1149.95 585.949 1149.64 585.559 1149.21 585.277C1148.8 584.996 1148.27 584.855 1147.62 584.855ZM1162.86 582.781C1163.07 582.781 1163.31 582.793 1163.57 582.816C1163.83 582.84 1164.05 582.871 1164.24 582.91L1163.98 585.488C1163.82 585.441 1163.61 585.406 1163.37 585.383C1163.14 585.359 1162.93 585.348 1162.74 585.348C1162.25 585.348 1161.78 585.43 1161.33 585.594C1160.89 585.75 1160.49 585.992 1160.15 586.32C1159.8 586.641 1159.54 587.043 1159.34 587.527C1159.14 588.012 1159.05 588.574 1159.05 589.215V596H1156.28V583.027H1158.44L1158.81 585.312H1158.94C1159.2 584.852 1159.52 584.43 1159.9 584.047C1160.29 583.664 1160.72 583.359 1161.21 583.133C1161.71 582.898 1162.26 582.781 1162.86 582.781ZM1178.12 589.484C1178.12 590.562 1177.98 591.52 1177.7 592.355C1177.42 593.191 1177.01 593.898 1176.47 594.477C1175.93 595.047 1175.29 595.484 1174.53 595.789C1173.77 596.086 1172.91 596.234 1171.96 596.234C1171.07 596.234 1170.25 596.086 1169.51 595.789C1168.77 595.484 1168.12 595.047 1167.58 594.477C1167.04 593.898 1166.62 593.191 1166.32 592.355C1166.03 591.52 1165.88 590.562 1165.88 589.484C1165.88 588.055 1166.12 586.844 1166.62 585.852C1167.12 584.852 1167.83 584.09 1168.75 583.566C1169.67 583.043 1170.77 582.781 1172.04 582.781C1173.24 582.781 1174.29 583.043 1175.21 583.566C1176.12 584.09 1176.84 584.852 1177.35 585.852C1177.87 586.852 1178.12 588.062 1178.12 589.484ZM1168.71 589.484C1168.71 590.43 1168.83 591.238 1169.05 591.91C1169.29 592.582 1169.65 593.098 1170.13 593.457C1170.62 593.809 1171.24 593.984 1172.01 593.984C1172.77 593.984 1173.4 593.809 1173.88 593.457C1174.37 593.098 1174.72 592.582 1174.95 591.91C1175.18 591.238 1175.29 590.43 1175.29 589.484C1175.29 588.539 1175.18 587.738 1174.95 587.082C1174.72 586.418 1174.37 585.914 1173.88 585.57C1173.4 585.219 1172.77 585.043 1172 585.043C1170.86 585.043 1170.02 585.426 1169.5 586.191C1168.98 586.957 1168.71 588.055 1168.71 589.484ZM1187.95 582.781C1189.48 582.781 1190.72 583.344 1191.65 584.469C1192.59 585.594 1193.05 587.266 1193.05 589.484C1193.05 590.953 1192.84 592.191 1192.4 593.199C1191.97 594.199 1191.36 594.957 1190.58 595.473C1189.81 595.98 1188.91 596.234 1187.88 596.234C1187.22 596.234 1186.65 596.148 1186.16 595.977C1185.68 595.805 1185.27 595.582 1184.92 595.309C1184.58 595.027 1184.29 594.723 1184.05 594.395H1183.89C1183.93 594.707 1183.96 595.055 1184 595.438C1184.04 595.812 1184.05 596.156 1184.05 596.469V601.754H1181.29V583.027H1183.54L1183.93 584.82H1184.05C1184.3 584.453 1184.59 584.113 1184.93 583.801C1185.29 583.488 1185.71 583.242 1186.2 583.062C1186.7 582.875 1187.28 582.781 1187.95 582.781ZM1187.21 585.031C1186.45 585.031 1185.84 585.184 1185.38 585.488C1184.93 585.785 1184.59 586.234 1184.38 586.836C1184.18 587.438 1184.07 588.191 1184.05 589.098V589.484C1184.05 590.445 1184.15 591.262 1184.35 591.934C1184.55 592.598 1184.88 593.105 1185.34 593.457C1185.81 593.801 1186.45 593.973 1187.24 593.973C1187.91 593.973 1188.47 593.789 1188.91 593.422C1189.35 593.055 1189.68 592.531 1189.9 591.852C1190.12 591.172 1190.23 590.371 1190.23 589.449C1190.23 588.051 1189.98 586.965 1189.48 586.191C1188.99 585.418 1188.23 585.031 1187.21 585.031ZM1204.96 592.297C1204.96 593.148 1204.75 593.867 1204.34 594.453C1203.93 595.039 1203.32 595.484 1202.52 595.789C1201.73 596.086 1200.77 596.234 1199.62 596.234C1198.71 596.234 1197.93 596.168 1197.27 596.035C1196.62 595.91 1196.01 595.715 1195.43 595.449V593.07C1196.05 593.359 1196.74 593.609 1197.51 593.82C1198.28 594.031 1199.01 594.137 1199.7 594.137C1200.61 594.137 1201.26 593.996 1201.66 593.715C1202.05 593.426 1202.25 593.043 1202.25 592.566C1202.25 592.285 1202.17 592.035 1202.01 591.816C1201.85 591.59 1201.55 591.359 1201.12 591.125C1200.69 590.883 1200.05 590.594 1199.22 590.258C1198.4 589.93 1197.71 589.602 1197.14 589.273C1196.58 588.945 1196.16 588.551 1195.87 588.09C1195.58 587.621 1195.43 587.023 1195.43 586.297C1195.43 585.148 1195.89 584.277 1196.79 583.684C1197.71 583.082 1198.91 582.781 1200.41 582.781C1201.21 582.781 1201.96 582.863 1202.66 583.027C1203.38 583.184 1204.07 583.414 1204.75 583.719L1203.88 585.793C1203.3 585.535 1202.71 585.324 1202.11 585.16C1201.53 584.988 1200.93 584.902 1200.32 584.902C1199.61 584.902 1199.07 585.012 1198.69 585.23C1198.32 585.449 1198.14 585.762 1198.14 586.168C1198.14 586.473 1198.23 586.73 1198.41 586.941C1198.59 587.152 1198.9 587.363 1199.34 587.574C1199.78 587.785 1200.4 588.047 1201.19 588.359C1201.96 588.656 1202.63 588.969 1203.19 589.297C1203.76 589.617 1204.2 590.012 1204.5 590.48C1204.81 590.949 1204.96 591.555 1204.96 592.297ZM1207.54 594.547C1207.54 593.906 1207.7 593.457 1208.03 593.199C1208.37 592.934 1208.77 592.801 1209.25 592.801C1209.73 592.801 1210.13 592.934 1210.47 593.199C1210.81 593.457 1210.98 593.906 1210.98 594.547C1210.98 595.172 1210.81 595.625 1210.47 595.906C1210.13 596.18 1209.73 596.316 1209.25 596.316C1208.77 596.316 1208.37 596.18 1208.03 595.906C1207.7 595.625 1207.54 595.172 1207.54 594.547ZM1217.28 583.027V596H1214.52V583.027H1217.28ZM1215.92 578.059C1216.34 578.059 1216.7 578.172 1217.01 578.398C1217.32 578.625 1217.48 579.016 1217.48 579.57C1217.48 580.117 1217.32 580.508 1217.01 580.742C1216.7 580.969 1216.34 581.082 1215.92 581.082C1215.48 581.082 1215.11 580.969 1214.8 580.742C1214.51 580.508 1214.36 580.117 1214.36 579.57C1214.36 579.016 1214.51 578.625 1214.8 578.398C1215.11 578.172 1215.48 578.059 1215.92 578.059ZM1232.71 589.484C1232.71 590.562 1232.57 591.52 1232.29 592.355C1232.01 593.191 1231.6 593.898 1231.06 594.477C1230.52 595.047 1229.87 595.484 1229.11 595.789C1228.36 596.086 1227.5 596.234 1226.55 596.234C1225.66 596.234 1224.84 596.086 1224.1 595.789C1223.36 595.484 1222.71 595.047 1222.16 594.477C1221.62 593.898 1221.21 593.191 1220.91 592.355C1220.61 591.52 1220.46 590.562 1220.46 589.484C1220.46 588.055 1220.71 586.844 1221.2 585.852C1221.7 584.852 1222.41 584.09 1223.34 583.566C1224.26 583.043 1225.36 582.781 1226.63 582.781C1227.82 582.781 1228.88 583.043 1229.79 583.566C1230.71 584.09 1231.42 584.852 1231.94 585.852C1232.45 586.852 1232.71 588.062 1232.71 589.484ZM1223.3 589.484C1223.3 590.43 1223.41 591.238 1223.64 591.91C1223.88 592.582 1224.23 593.098 1224.72 593.457C1225.2 593.809 1225.83 593.984 1226.59 593.984C1227.36 593.984 1227.98 593.809 1228.47 593.457C1228.95 593.098 1229.31 592.582 1229.54 591.91C1229.76 591.238 1229.88 590.43 1229.88 589.484C1229.88 588.539 1229.76 587.738 1229.54 587.082C1229.31 586.418 1228.95 585.914 1228.47 585.57C1227.98 585.219 1227.36 585.043 1226.58 585.043C1225.44 585.043 1224.61 585.426 1224.09 586.191C1223.56 586.957 1223.3 588.055 1223.3 589.484Z" fill="#1A1A1A"/>
<path d="M337.596 179.457L241.238 216.285C237.036 217.933 233.429 220.81 230.889 224.54C228.349 228.27 226.993 232.681 227 237.194V329.908L271.283 304.459V252.328L345.5 223.853V178C342.799 178.006 340.121 178.5 337.596 179.457Z" fill="#323232"/>
<path d="M272.068 387.085L345.5 344.763V293.642L232.045 359.057C230.518 359.952 229.25 361.229 228.365 362.762C227.48 364.295 227.01 366.032 227 367.802V402.051C227.038 406.526 228.414 410.887 230.952 414.573C233.489 418.26 237.072 421.102 241.238 422.735L337.596 459.563C340.121 460.521 342.799 461.015 345.5 461.021V415.168L272.068 387.085Z" fill="#323232"/>
<path d="M459.291 279.066C460.739 278.237 461.939 277.036 462.767 275.587C463.594 274.139 464.02 272.495 463.999 270.826V237.194C464.006 232.68 462.651 228.27 460.11 224.54C457.57 220.81 453.963 217.933 449.761 216.285L353.347 179.457C350.84 178.506 348.182 178.013 345.5 178V223.853L418.371 251.88L345.5 293.865V344.987L459.291 279.066Z" fill="#1A1A1A"/>
<path d="M353.347 459.563L449.761 422.735C453.928 421.102 457.51 418.259 460.047 414.573C462.585 410.887 463.961 406.526 463.999 402.051V308.384L419.716 333.945V386.804L345.5 415.168V461.021C348.182 461.008 350.84 460.514 353.347 459.563Z" fill="#1A1A1A"/>
<path d="M670 295.553L663.957 289.51L640 313.467L616.043 289.51L610 295.553L633.957 319.51L610 343.467L616.043 349.51L640 325.553L663.957 349.51L670 343.467L646.043 319.51L670 295.553Z" fill="#939393"/>
<path d="M865.558 245.448C851.418 245.55 835.384 249.629 824.173 257.801C823.899 258.016 823.651 258.216 823.406 258.423C823.443 258.49 823.449 258.53 823.479 258.597C823.76 258.597 824.022 258.554 824.303 258.524C826.488 258.176 828.65 258.248 830.798 258.626C839.063 260.122 847.352 266.646 850.196 285.184C852.033 297.093 849.952 302.826 852.973 315.084C859.572 341.85 884.578 352.443 897.324 352.028C898.642 351.991 905.236 351.536 906.206 351.262C905.369 350.358 891.071 350.919 882.598 334.048C881.102 331.063 879.986 327.931 880.371 324.457C881.378 315.607 891.795 314.043 898.423 318.035C910.925 325.53 920.398 349.736 937.899 351.884C950.742 353.446 967.275 345.974 975.466 336.116C975.258 336.079 975.185 336.058 975.119 336.087C974.978 336.124 974.832 336.152 974.728 336.189C963.167 340.388 941.989 339.563 927.962 331.053C914.904 323.136 909.529 310.664 909.981 305.146C910.603 297.755 917.933 297.103 922.45 298.347C927.45 299.703 930.918 304.452 935.947 307.851C941.361 311.458 947.376 312.602 953.768 311.424C958.937 310.483 965.706 307.153 966.439 306.39C966.054 306.353 965.816 306.362 965.572 306.332C963.416 306.125 961.267 306.058 959.149 305.739C920.548 300.014 914.401 248.931 871.489 245.636C869.566 245.488 867.578 245.433 865.558 245.448ZM861.812 252.666C861.427 257.769 854.093 260.06 849.545 255.024C849.227 254.676 849.23 254.611 849.097 254.329C853.296 253.426 857.501 252.91 861.812 252.666ZM915.927 265.468C916.267 265.853 916.457 266.07 916.664 266.278C921.871 271.729 927.797 276.236 934.5 279.673C942.521 283.739 950.93 285.928 959.988 285.025C963.076 284.743 966.055 283.944 968.87 282.551C969.077 282.447 969.284 282.272 969.492 282.132C969.284 282.028 969.112 281.993 968.971 282.03C967.475 282.208 966.026 282.483 964.53 282.624C960.02 283.038 955.753 282.35 951.902 279.817C945.651 275.685 941.307 271.167 934.471 268.39C926.243 265.057 918.563 265.468 915.927 265.468ZM928.873 282.493C928.488 282.997 929.091 283.26 929.336 283.564C945.482 302.887 973.314 305.863 990.741 299.635C1003.83 294.984 1012.49 302.29 1014.22 309.659C1014.25 309.793 1014.31 309.96 1014.38 310.093C1014.44 310.056 1014.53 310.05 1014.59 310.05C1014.59 307.035 1014.03 303.592 1012.82 300.445C1010.76 295.127 1007.27 291.035 1001.68 288.858C992.93 285.473 984.286 288.217 978.59 289.957C969.807 292.668 961.436 293.744 950.86 291.708C943.217 290.264 936.209 287.415 929.929 282.927C929.61 282.69 928.91 282.427 928.873 282.493ZM991.681 315.387C989.49 315.296 987.16 315.421 984.666 315.778C974.156 317.304 968.156 322.059 960.639 326.54C954.203 330.325 950.341 329.884 941.95 328.565C941.95 328.632 941.906 328.658 941.906 328.725C942.04 328.791 942.135 328.875 942.239 328.942C949.319 332.548 955.384 332.896 964.516 331.719C974.825 330.364 979.671 326.679 985.404 323.242C992.314 319.109 998.751 320.328 1008.49 321.853C1008.52 321.787 1008.53 321.703 1008.56 321.637C1003.61 317.887 998.256 315.662 991.681 315.387ZM1005.67 326.425C994.738 327.238 988.197 333.842 982.293 339.979C979.701 342.682 977.143 345.402 974.41 347.934C969.218 352.793 965.095 353.173 964.125 353.692V353.836C966.273 353.977 973.365 353.657 979.661 352.375C1003.82 347.406 1004.31 330.079 1015.52 330.012C1018.12 330.012 1020.63 330.214 1023.06 331.155C1023.12 331.192 1023.2 331.155 1023.38 331.155C1023.27 331.014 1023.23 330.918 1023.13 330.851C1020.77 329.288 1018.62 327.061 1010.63 326.439C1008.88 326.3 1007.23 326.308 1005.67 326.425ZM1022.58 335.914C1018.35 335.523 1014.31 336.702 1010.46 339.096C1010.35 339.17 1010.25 339.314 1010.04 339.588C1012.53 339.766 1016.33 339.873 1019.8 342.51C1024 345.709 1026.49 349.516 1030.77 350.871C1037.71 353.063 1044.38 350.108 1045.59 349.034C1045.53 348.893 1045.49 348.867 1045.45 348.889C1044.72 348.682 1041.18 348.851 1037.44 345.244C1033.55 341.533 1031.22 338.299 1026.88 336.84C1025.42 336.345 1023.99 336.044 1022.58 335.914ZM867.988 349.135L867.844 349.265C868.473 350.339 872.746 355.439 874.353 357.12C885.381 368.755 902.6 378.119 917.576 377.719C928.492 377.415 936.062 374.969 944.698 375.65C953.03 376.25 957.077 378.271 958.758 378.775C958.795 378.708 958.866 378.668 958.903 378.601C958.207 377.623 956.21 375.673 955.373 374.999C943.405 365.534 930.52 370.641 921.351 366.479C917.292 364.635 917.121 362.181 918.906 360.707C920.269 359.53 920.823 359.334 927.296 358.06C926.556 356.92 920.156 353.973 912.209 357.091C903.988 360.305 895.628 360.538 887.155 358.19C876.971 355.376 870.299 350.513 867.988 349.135ZM939.592 379.136C939.496 379.136 939.386 379.2 939.216 379.266C941.549 379.889 948.279 381.004 955.648 389.58C960.011 394.653 965.215 396.801 971.473 397.29C971.51 397.112 971.722 397.011 970.982 396.596C969.286 395.626 967.89 394.415 966.801 392.748C964.572 389.312 961.295 382.703 952.741 380.481C948.416 379.371 944.021 379.173 939.592 379.136Z" fill="#DC5F36"/>
</svg>
